**kern	**silbe	**harmony	**phrase	**leadinstrument	**rhyme	**timestamp	**harte
*ICvox	*	*M3/4	*	*	*	*	*M3/4
*VRlead	*	*	*	*	*	*	*
*Hstimme	*	*	*	*	*	*	*
*A-:	*	*A-:	*	*	*	*	*A-:
2.r;	.	2.r;	.	r	.	0	N.C.
=1	=1	=1	=1	=1	=1	=1	=1
*>Letter>A	*>Letter>A	*>Letter>A	*>Letter>A	*>Letter>A	*>Letter>A	*>Letter>A	*>Letter>A
*>Label>Intro	*>Label>Intro	*>Label>Intro	*>Label>Intro	*>Label>Intro	*>Label>Intro	*>Label>Intro	*>Label>Intro
*M3/4	*	*	*	*	*	*	*
*clefG2	*	*	*	*	*	*	*
2.r	.	2.A-M	newline	r	.	0.441	A-:maj/5
=2	=2	=2	=2	=2	=2	=2	=2
.	.	2.E-Mm	.	r	.	3.411	E-:7
=2	=2	=2	=2	=2	=2	=2	=2
2.r	.	.	.	.	.	.	.
=3	=3	=3	=3	=3	=3	=3	=3
2.r	.	2.A-M	.	r	.	6.38	A-:maj/5
=4	=4	=4	=4	=4	=4	=4	=4
2.r	.	2.A-M	.	r	.	9.35	A-:maj/5
=5	=5	=5	=5	=5	=5	=5	=5
*>Letter>B	*>Letter>B	*>Letter>B	*>Letter>B	*>Letter>B	*>Letter>B	*>Letter>B	*>Letter>B
*>Label>Verse	*>Label>Verse	*>Label>Verse	*>Label>Verse	*>Label>Verse	*>Label>Verse	*>Label>Verse	*>Label>Verse
4.e-	Si-	2.A-M	newline	voice	.	12.32	A-:maj
8f	_	.	.	.	.	.	.
4e-	-lent	.	.	.	.	.	.
=6	=6	=6	=6	=6	=6	=6	=6
2.c	night	2.A-M	.	voice	A	15.009	A-:maj
=7	=7	=7	=7	=7	=7	=7	=7
4.e-	ho-	2.A-M	.	voice	.	17.698	A-:maj
8f	_	.	.	.	.	.	.
4e-	-ly	.	.	.	.	.	.
=8	=8	=8	=8	=8	=8	=8	=8
2.c	night	2.A-M	.	voice	A	20.388	A-:maj
=9	=9	=9	=9	=9	=9	=9	=9
[2b-	all	2.E-M	newline	voice	.	23.077	E-:sus4
8b-]	_	.	.	.	.	.	.
8b-	is	.	.	.	.	.	.
=10	=10	=10	=10	=10	=10	=10	=10
2.g	calm	2.E-M	.	voice	.	25.748	E-:maj
=11	=11	=11	=11	=11	=11	=11	=11
[2a-	all	2.A-M	.	voice	.	28.42	A-:maj
8a-]	_	.	.	.	.	.	.
8a-	is	.	.	.	.	.	.
=12	=12	=12	=12	=12	=12	=12	=12
2.e-	bright	2.A-M	.	voice	A	31.091	A-:maj
=13	=13	=13	=13	=13	=13	=13	=13
[2f	round	2.D-M	newline	voice	.	33.762	D-:maj
8f]	_	.	.	.	.	.	.
8f	yon	.	.	.	.	.	.
=14	=14	=14	=14	=14	=14	=14	=14
4.a-	vir-	2.D-M	.	voice	.	36.446	D-:maj
8g	_	.	.	.	.	.	.
4f	-gin	.	.	.	.	.	.
=15	=15	=15	=15	=15	=15	=15	=15
8r	.	2.A-M	.	voice	.	39.129	A-:maj
4e-	mo-	.	.	.	.	.	.
8f	-ther	.	.	.	.	.	.
4e-	and	.	.	.	.	.	.
=16	=16	=16	=16	=16	=16	=16	=16
2.c	child	2.A-M	.	voice	B	41.812	A-:maj
=17	=17	=17	=17	=17	=17	=17	=17
8r	.	2.D-M	newline	voice	.	44.495	D-:maj
4.f	ho-	.	.	.	.	.	.
4f	-ly	.	.	.	.	.	.
=18	=18	=18	=18	=18	=18	=18	=18
4.a-	in-	2.D-M	.	voice	.	47.303	D-:maj
8g	-fant	.	.	.	.	.	.
4r	.	.	.	.	.	.	.
=19	=19	=19	=19	=19	=19	=19	=19
8r	.	2.A-M	.	voice	.	50.111	A-:maj
8A-	so	.	.	.	.	.	.
[4e-	ten-	.	.	.	.	.	.
8e-]	_	.	.	.	.	.	.
16f	-der	.	.	.	.	.	.
16e-	and	.	.	.	.	.	.
=20	=20	=20	=20	=20	=20	=20	=20
2.c	mild	2.A-M	.	voice	B	52.919	A-:maj
=21	=21	=21	=21	=21	=21	=21	=21
2b-	sleep	2.E-Mm	newline	voice	.	55.728	E-:7
4b-	in	.	.	.	.	.	.
=22	=22	=22	=22	=22	=22	=22	=22
4.dd-	hea-	2.E-Mm	.	voice	.	58.518	E-:7
8b-	-ven-	.	.	.	.	.	.
4g	-ly	.	.	.	.	.	.
=23	=23	=23	=23	=23	=23	=23	=23
2.a-	peace	2.A-M	.	voice	.	61.308	A-:maj
=24	=24	=24	=24	=24	=24	=24	=24
2.cc	_	2.A-M	.	voice	.	64.098	A-:maj
=25	=25	=25	=25	=25	=25	=25	=25
4a-	sleep	2.A-M	newline	voice	.	66.888	A-:maj
4e-	_	.	.	.	.	.	.
8r	.	.	.	.	.	.	.
8c	in	.	.	.	.	.	.
=26	=26	=26	=26	=26	=26	=26	=26
4.e-	hea-	2.E-M	.	voice	.	69.742	E-:maj
8d-	-ven-	.	.	.	.	.	.
4B-	-ly	.	.	.	.	.	.
=27	=27	=27	=27	=27	=27	=27	=27
[2.A-	peace	2.A-M	.	voice	.	72.597	A-:maj
=28	=28	=28	=28	=28	=28	=28	=28
2A-]	_	2.A-M	.	voice	.	75.451	A-:maj
4r	.	.	.	.	.	.	.
=29	=29	=29	=29	=29	=29	=29	=29
*>Letter>B	*>Letter>B	*>Letter>B	*>Letter>B	*>Letter>B	*>Letter>B	*>Letter>B	*>Letter>B
*>Label>Verse	*>Label>Verse	*>Label>Verse	*>Label>Verse	*>Label>Verse	*>Label>Verse	*>Label>Verse	*>Label>Verse
4.e-	Si-	2.A-M	newline	voice	.	78.306	A-:maj
8f	_	.	.	.	.	.	.
4e-	-lent	.	.	.	.	.	.
=30	=30	=30	=30	=30	=30	=30	=30
2.c	night	2.A-MM	.	voice	A	81.386	A-:maj7
=31	=31	=31	=31	=31	=31	=31	=31
4.e-	ho-	2.A-M	.	voice	.	84.467	A-:maj(9)
8f	_	.	.	.	.	.	.
4e-	-ly	.	.	.	.	.	.
=32	=32	=32	=32	=32	=32	=32	=32
2.c	night	2.A-MM	.	voice	A	87.547	A-:maj7
=33	=33	=33	=33	=33	=33	=33	=33
[2b-	all	2.E-Mm	newline	voice	.	90.628	E-:7
8b-]	_	.	.	.	.	.	.
8b-	is	.	.	.	.	.	.
=34	=34	=34	=34	=34	=34	=34	=34
2.g	calm	2.E-Mm	.	voice	.	93.796	E-:7
=35	=35	=35	=35	=35	=35	=35	=35
[2a-	all	2.A-M	.	voice	.	96.963	A-:maj
8a-]	_	.	.	.	.	.	.
8a-	is	.	.	.	.	.	.
=36	=36	=36	=36	=36	=36	=36	=36
2.e-	bright	2A-MM	.	voice	A	100.131	A-:maj7
.	.	4A-Mm	.	voice	.	102.243	A-:7
=37	=37	=37	=37	=37	=37	=37	=37
8r	.	2.D-M	newline	voice	.	103.299	D-:maj
2f	round	.	.	.	.	.	.
8f	yon	.	.	.	.	.	.
=38	=38	=38	=38	=38	=38	=38	=38
4.a-	vir-	4D-MM	.	voice	.	106.433	D-:maj7
.	.	4D-M	.	voice	.	107.478	D-:maj6
8g	_	.	.	.	.	.	.
4f	-gin	4D-Mm	.	voice	.	108.523	D-:7
=39	=39	=39	=39	=39	=39	=39	=39
8r	.	2.A-M	.	voice	.	109.567	A-:maj(9)
4e-	mo-	.	.	.	.	.	.
8f	-ther	.	.	.	.	.	.
4e-	and	.	.	.	.	.	.
=40	=40	=40	=40	=40	=40	=40	=40
2.c	child	4A-MM	.	voice	B	112.702	A-:maj7
.	.	2A-Mm	.	voice	.	114.791	A-:7
=41	=41	=41	=41	=41	=41	=41	=41
8r	.	2.D-M	newline	voice	.	115.836	D-:maj
2f	ho-	.	.	.	.	.	.
8f	-ly	.	.	.	.	.	.
=42	=42	=42	=42	=42	=42	=42	=42
4.a-	in-	4D-MM	.	voice	.	119.055	D-:maj7
.	.	4D-M	.	voice	.	120.128	D-:maj6
8g	-fant	.	.	.	.	.	.
8r	.	4D-Mm	.	voice	.	121.201	D-:7
8A-	so	.	.	.	.	.	.
=43	=43	=43	=43	=43	=43	=43	=43
4.e-	ten-	2.A-M	.	voice	.	122.274	A-:maj(9)
8f	-der	.	.	.	.	.	.
4e-	and	.	.	.	.	.	.
=44	=44	=44	=44	=44	=44	=44	=44
2.c	mild	2.A-M	.	voice	B	125.493	A-:maj
=45	=45	=45	=45	=45	=45	=45	=45
2b-	sleep	2.E-Mm	newline	voice	.	128.712	E-:7
4b-	in	.	.	.	.	.	.
=46	=46	=46	=46	=46	=46	=46	=46
4.dd-	hea-	2.E-Mm	.	voice	.	132.107	E-:7
8b-	-ven-	.	.	.	.	.	.
4g	-ly	.	.	.	.	.	.
=47	=47	=47	=47	=47	=47	=47	=47
[2.a-	peace	2.A-M	.	voice	.	135.503	A-:maj
=48	=48	=48	=48	=48	=48	=48	=48
2.a-]	_	2.A-M	.	voice	.	138.899	A-:maj
=49	=49	=49	=49	=49	=49	=49	=49
8a-	sleep	2.A-M	newline	voice	.	142.294	A-:maj
4.e-	_	.	.	.	.	.	.
8r	.	.	.	.	.	.	.
8c	in	.	.	.	.	.	.
=50	=50	=50	=50	=50	=50	=50	=50
4.e-	hea-	2.E-Mm	.	voice	.	145.732	E-:7
8d-	-ven-	.	.	.	.	.	.
4B-	-ly	.	.	.	.	.	.
=51	=51	=51	=51	=51	=51	=51	=51
[2.A-	peace	2.A-M	.	voice	.	149.169	A-:maj
=52	=52	=52	=52	=52	=52	=52	=52
2A-]	_	2.A-M	.	voice	.	152.607	A-:maj
4r	.	.	.	.	.	.	.
r;	.	1r;	.	r	.	160.055	N.C.
r;	.	1r;	.	r	.	161.907	N.C.
*-	*-	*-	*-	*-	*-	*-	*-
!!!BillboardChartDate: 1960/12/19
!!!BillboardPeak: 54
!!!BillboardWeeksOnChart: 2
!!!COC: Bing Crosby
!!!ENC: Nathaniel Condit-Schultz
!!!EST: Awating manual error checking and editing.
!!!OTL: Silent Night
!!!RDF**chordsym: original McGill chord annotation + (implied pitch class set, with bass pitch in first position)
!!!RDF**harmony: **recip + pitch class of root + harmonic quality
!!!RDF**leadinstrument: original McGill primary instrumentation annotation
!!!RDF**phrase: newline = linebreak in original McGill transcription
!!!RDF**timestamp: McGill audio timestamp in seconds
!!!RDT: 2017/01/12/
!!!SampleActualRank: 64
!!!SampleID#: 0123
!!!SampleTargetRank: 64
